DaVinci_Crash_Course_LUT.cube
TITLE "Generated by Resolve"
LUT_3D_SIZE 9
0 0 0
0.0122683 0.010605 0.010956
0.0458534 0.0259251 0.0272831
0.112169 0.0389258 0.0406348
0.196551 0.0479438 0.0505074
0.297719 0.0554208 0.0583352
0.41973 0.0569619 0.0599985
0.589654 0.0496376 0.0523232
0.809323 0.0325475 0.0352026
0.0292821 0.0756237 0.0466163
0.0667887 0.0992752 0.0603494
0.142672 0.11397 0.0544594
0.239811 0.119478 0.0529183
0.372534 0.116182 0.0401007
0.543282 0.106477 0.019791
0.732036 0.0922408 0
0.889464 0.0782483 0
1 0.0693675 0
0.026627 0.2094 0.0675975
0.0644846 0.232929 0.055024
0.145647 0.244694 0.0370642
0.292943 0.231327 0
0.475257 0.215808 0
0.642496 0.207172 0
0.791852 0.201221 0
0.914183 0.196796 0
1 0.193515 0
0 0.3823 0.0208286
0.025803 0.389181 0.0128939
0.120851 0.388357 0.0114595
0.243275 0.37525 0.00840772
0.403693 0.352544 0
0.601556 0.347158 0
0.780301 0.347662 0
0.924788 0.352804 0
1 0.35671 0
0 0.523995 0.012665
0.0271153 0.525567 0.0140078
0.124605 0.529671 0.0179141
0.249439 0.533898 0.0248875
0.388922 0.517449 0.0278935
0.557656 0.522301 0.000259403
0.755413 0.522545 0
0.926131 0.51603 0
1 0.507378 0
0 0.674708 0.0278172
0.0491646 0.685573 0.0359808
0.151598 0.693538 0.0420081
0.27219 0.696269 0.0449531
0.401099 0.674479 0.0453346
0.541329 0.665995 0.0390021
0.700755 0.664424 0.00679026
0.877668 0.659373 0
1 0.650553 0
0 0.824643 0.0450141
0.0586252 0.824033 0.0453803
0.154528 0.82295 0.0454414
0.270329 0.821302 0.045243
0.396262 0.809552 0.0446479
0.533364 0.799374 0.044007
0.675975 0.794812 0.035462
0.830106 0.792767 0.00440986
0.983047 0.787366 0
0 0.937667 0.0448768
0.0576791 0.936172 0.0443885
0.151492 0.93373 0.0437171
0.26511 0.931441 0.04271
0.389197 0.927413 0.0417182
0.524102 0.919295 0.0406195
0.663539 0.913741 0.0394293
0.805753 0.910491 0.0290684
0.947097 0.908522 0
0 1 0.042298
0.0545815 1 0.0412909
0.145754 1 0.0401617
0.257725 1 0.0388037
0.379767 1 0.0375525
0.513085 1 0.0362554
0.651591 1 0.0349279
0.790845 1 0.0333867
0.924788 1 0.022034
0 0 0
0.0178683 0.0163729 0.023209
0.0520333 0.0317845 0.0485542
0.117357 0.0436255 0.0767529
0.200412 0.0542763 0.0986496
0.300908 0.0602121 0.113207
0.425971 0.059968 0.123003
0.608331 0.0487678 0.127306
0.823545 0.0305943 0.123735
0.030808 0.082887 0.0858015
0.0711376 0.105348 0.109377
0.146548 0.121355 0.126696
0.24181 0.126696 0.132387
0.375402 0.118563 0.125048
0.543252 0.106584 0.114443
0.724453 0.0924392 0.100282
0.87808 0.0802319 0.0884108
0.988663 0.0725567 0.0800793
0.0206455 0.214954 0.1355
0.0599069 0.236561 0.134371
0.148699 0.248661 0.129641
0.303105 0.228748 0.0810407
0.474937 0.212665 0.0710155
0.632898 0.205875 0.0684062
0.777981 0.201526 0.0672313
0.901732 0.198413 0.0657664
1 0.196857 0.0651102
0 0.384741 0.108537
0.024567 0.388952 0.104356
0.121569 0.387579 0.104143
0.244419 0.378424 0.1028
0.412055 0.350011 0.0598917
0.608255 0.345617 0.0534829
0.782238 0.34847 0.0577096
0.924544 0.354269 0.0627146
1 0.358144 0.0666667
0 0.52401 0.102388
0.0281376 0.526421 0.104631
0.126513 0.531685 0.109636
0.252689 0.538521 0.119509
0.392065 0.523262 0.124468
0.564431 0.522774 0.0865644
0.763058 0.519692 0.0621195
0.927932 0.5122 0.0547646
1 0.503975 0.0485847
0 0.678447 0.120623
0.051667 0.689342 0.130037
0.152987 0.69482 0.135378
0.27187 0.69572 0.138231
0.400381 0.67718 0.138201
0.540078 0.664759 0.1308
0.702464 0.662593 0.0915999
0.884001 0.655924 0.0523842
1 0.646342 0.0311131
0 0.824521 0.137652
0.0586404 0.823865 0.137362
0.153918 0.822034 0.136309
0.269276 0.820249 0.13579
0.394965 0.809796 0.134127
0.531731 0.797681 0.131594
0.673823 0.792721 0.122713
0.829892 0.790311 0.0895247
0.986831 0.784131 0.0446021
0 0.936919 0.136645
0.0574197 0.935286 0.13518
0.150469 0.932708 0.13312
0.263798 0.930358 0.131334
0.387411 0.92607 0.128664
0.522011 0.917662 0.126528
0.661128 0.911543 0.125185
0.802915 0.908171 0.116228
0.945998 0.90605 0.0849317
0 1 0.132509
0.0541695 1 0.13048
0.144564 1 0.127962
0.256123 1 0.125566
0.37789 1 0.1234
0.510658 1 0.122118
0.648783 1 0.120653
0.787991 1 0.119402
0.922148 1 0.109209
0.00384527 0.00514229 0.00874342
0.0239872 0.0216373 0.0428931
0.0622568 0.0364233 0.083238
0.12697 0.0479133 0.121187
0.207843 0.0588388 0.15111
0.305196 0.0642252 0.17084
0.434058 0.0617838 0.190555
0.624887 0.0482032 0.214603
0.831434 0.0299992 0.23035
0.032166 0.0903334 0.133593
0.0740368 0.110811 0.166659
0.14255 0.127077 0.196216
0.233234 0.13286 0.218173
0.36289 0.12546 0.225666
0.526558 0.112367 0.231556
0.701366 0.0981308 0.233371
0.856214 0.0874342 0.23093
0.961944 0.0809491 0.227176
0.0134127 0.21442 0.217945
0.0545357 0.230137 0.235065
0.147631 0.242985 0.252537
0.300771 0.239902 0.25214
0.454627 0.217441 0.227649
0.605936 0.210193 0.219715
0.751888 0.206455 0.215564
0.881559 0.203983 0.212833
0.98555 0.204288 0.213138
0 0.376333 0.22414
0.0241093 0.379004 0.223819
0.124254 0.383886 0.225971
0.258228 0.385763 0.236591
0.437385 0.352453 0.196216
0.615961 0.345495 0.19942
0.777707 0.351507 0.207279
0.914839 0.357809 0.215167
1 0.361395 0.219684
0 0.521645 0.216358
0.0294194 0.525582 0.220035
0.130724 0.534035 0.227008
0.257084 0.544259 0.238911
0.397513 0.543816 0.252033
0.57734 0.522423 0.206302
0.766323 0.515312 0.19263
0.923903 0.508659 0.189685
1 0.500908 0.183276
0 0.682078 0.238727
0.0535439 0.691646 0.24799
0.156085 0.695537 0.252415
0.271382 0.694697 0.253864
0.399161 0.689937 0.260533
0.538582 0.665919 0.25687
0.705989 0.660212 0.205432
0.889052 0.65127 0.157733
1 0.640925 0.138384
0 0.824308 0.253895
0.0585489 0.823514 0.253117
0.155154 0.821851 0.251392
0.268238 0.81886 0.250034
0.393545 0.815167 0.25565
0.529931 0.800275 0.258625
0.671595 0.790555 0.252644
0.830747 0.78761 0.198108
0.991165 0.779049 0.132891
0 0.936416 0.251606
0.057084 0.934813 0.249317
0.15082 0.932342 0.246616
0.262516 0.929152 0.244419
0.385504 0.925017 0.248447
0.519722 0.918364 0.251072
0.658732 0.909438 0.251438
0.799969 0.905821 0.242008
0.945464 0.903517 0.184863
0 1 0.246036
0.0536812 1 0.24303
0.143938 1 0.239155
0.254551 1 0.237018
0.375906 1 0.23946
0.507897 1 0.240925
0.646052 1 0.240757
0.785 1 0.240238
0.919707 1 0.224903
0.00813306 0.0110933 0.0236362
0.0302586 0.0270695 0.073106
0.0721599 0.0404822 0.125994
0.137621 0.0522469 0.171801
0.216663 0.0614481 0.208148
0.312337 0.0647593 0.234852
0.446983 0.0597086 0.267109
0.64036 0.0456855 0.310109
0.840864 0.0285649 0.34461
0.0332341 0.0963302 0.187533
0.0746166 0.113069 0.229603
0.14255 0.127306 0.270756
0.231937 0.13135 0.312886
0.354253 0.122988 0.333761
0.508217 0.112657 0.34966
0.675685 0.102815 0.362646
0.829923 0.0948043 0.368139
0.938827 0.0904402 0.36849
0.00529488 0.212085 0.319722
0.0491951 0.222599 0.354726
0.14049 0.228748 0.3888
0.267002 0.234577 0.400824
0.41236 0.228534 0.381491
0.561868 0.223011 0.365087
0.712688 0.221164 0.364187
0.849912 0.219165 0.364172
0.961105 0.22089 0.367498
0 0.355383 0.355505
0.024155 0.356481 0.356802
0.124483 0.359854 0.362188
0.263111 0.373098 0.3841
0.438056 0.370703 0.383963
0.597665 0.35375 0.364569
0.755352 0.360235 0.37026
0.896147 0.367819 0.377508
1 0.370291 0.379965
0 0.499428 0.343481
0.0307469 0.504158 0.34876
0.135424 0.517601 0.357504
0.268025 0.543755 0.370077
0.413718 0.554391 0.391623
0.601907 0.520943 0.355993
0.774701 0.513268 0.361395
0.912642 0.507729 0.359533
1 0.501427 0.355108
0 0.669764 0.370184
0.0549172 0.676265 0.378286
0.158862 0.686732 0.380987
0.279271 0.693431 0.379751
0.39942 0.691768 0.380865
0.537087 0.676875 0.385
0.712673 0.656352 0.334966
0.889357 0.646326 0.321004
1 0.636484 0.313726
0 0.817029 0.381857
0.0583505 0.816114 0.380652
0.156649 0.817578 0.378286
0.275227 0.817517 0.375128
0.393103 0.813855 0.374319
0.527947 0.806577 0.38352
0.66891 0.789395 0.381537
0.832883 0.783978 0.331746
0.994583 0.773709 0.284199
0 0.935225 0.379065
0.056672 0.933303 0.376272
0.151232 0.93019 0.372091
0.268711 0.927718 0.367926
0.38378 0.923476 0.365118
0.517281 0.918807 0.374517
0.656001 0.909758 0.380301
0.796674 0.90341 0.377951
0.9458 0.900725 0.325948
0 1 0.372244
0.0531472 1 0.368521
0.143481 1 0.363317
0.259983 1 0.358755
0.373999 1 0.355535
0.505028 1 0.363241
0.643229 1 0.37023
0.781674 1 0.375662
0.917128 1 0.36907
0.0120851 0.0166934 0.0473793
0.0359045 0.0321202 0.11342
0.0807202 0.0439612 0.174853
0.145373 0.0556191 0.229023
0.223072 0.0633249 0.272847
0.319615 0.0636912 0.308522
0.464408 0.0534981 0.363607
0.657847 0.0393378 0.423651
0.858396 0.0241093 0.473152
0.0338598 0.0996109 0.24799
0.0766003 0.115923 0.299519
0.141329 0.125597 0.3552
0.229374 0.12781 0.422141
0.352102 0.119493 0.459648
0.505287 0.108125 0.484764
0.66865 0.0998398 0.503212
0.816785 0.0963149 0.507591
0.930022 0.0949416 0.510338
0 0.212146 0.436591
0.0444648 0.222217 0.490974
0.135836 0.224155 0.525994
0.254749 0.224353 0.540917
0.38793 0.22501 0.53048
0.532692 0.222278 0.507317
0.680812 0.226993 0.505257
0.823178 0.23212 0.50869
0.944289 0.237675 0.517708
0 0.351186 0.505257
0.0243381 0.35169 0.506462
0.125216 0.350958 0.515846
0.256672 0.352453 0.53637
0.397253 0.363729 0.541848
0.555993 0.36791 0.525353
0.716167 0.379416 0.527413
0.865187 0.389685 0.537362
0.979355 0.391211 0.541558
0 0.488807 0.484306
0.0325322 0.495521 0.491035
0.138293 0.505943 0.501625
0.272236 0.518837 0.517861
0.423301 0.539849 0.548165
0.605829 0.538552 0.551003
0.753445 0.517281 0.527855
0.888106 0.512963 0.523659
0.99649 0.507393 0.517708
0 0.662074 0.514153
0.0561685 0.668391 0.520638
0.158968 0.668635 0.521141
0.283543 0.672923 0.519493
0.410315 0.685588 0.517571
0.544839 0.685863 0.522255
0.728344 0.651713 0.485679
0.88629 0.642435 0.489479
1 0.633997 0.484916
0 0.810803 0.522011
0.0580911 0.809171 0.520317
0.156924 0.806043 0.517052
0.282673 0.809827 0.51342
0.403998 0.811154 0.508904
0.526574 0.807462 0.507424
0.666575 0.793805 0.512261
0.837324 0.77911 0.46334
0.994949 0.766812 0.445869
0 0.933303 0.518227
0.056199 0.930922 0.515038
0.151339 0.927062 0.510018
0.276295 0.925444 0.504646
0.394644 0.921553 0.498573
0.515724 0.917144 0.496254
0.653178 0.910002 0.507073
0.793301 0.901122 0.509453
0.947601 0.897307 0.459327
0 1 0.510414
0.0525521 1 0.506249
0.142641 1 0.499977
0.266484 1 0.493736
0.38407 1 0.487129
0.503304 1 0.484169
0.640223 1 0.495933
0.778302 1 0.506493
0.913283 1 0.506355
0.0156558 0.0218662 0.0838026
0.0408026 0.0366369 0.160555
0.0872358 0.0479286 0.228687
0.151492 0.0587625 0.291768
0.228626 0.0636454 0.344549
0.33106 0.0615702 0.39733
0.492317 0.0478523 0.47837
0.693309 0.0321202 0.558572
0.883803 0.0173953 0.616541
0.0341955 0.104082 0.31371
0.0766308 0.117281 0.375952
0.1411 0.124681 0.454322
0.233051 0.12488 0.540719
0.359594 0.117372 0.600122
0.512627 0.106126 0.628992
0.673762 0.097612 0.651225
0.818112 0.0953841 0.654383
0.931212 0.0956436 0.655833
0 0.216098 0.565652
0.0401312 0.223407 0.628458
0.132967 0.223972 0.662898
0.253498 0.22327 0.676265
0.385962 0.226963 0.674083
0.52755 0.225956 0.653269
0.674434 0.229892 0.651484
0.819257 0.238346 0.655772
0.943938 0.250034 0.667567
0 0.350652 0.656535
0.024567 0.351125 0.65716
0.126574 0.350835 0.667689
0.257191 0.352071 0.674891
0.390723 0.359442 0.680369
0.542245 0.373144 0.677424
0.699351 0.386496 0.676081
0.847623 0.402487 0.68455
0.966827 0.407721 0.690074
0 0.490166 0.633707
0.0349432 0.498558 0.642222
0.143359 0.509407 0.653086
0.28336 0.519539 0.67538
0.424216 0.524239 0.700816
0.563073 0.529412 0.704189
0.711482 0.527199 0.68423
0.852705 0.531472 0.678584
0.972763 0.529656 0.676799
0 0.663783 0.664088
0.057084 0.668635 0.669032
0.160372 0.667597 0.66775
0.289342 0.665583 0.665537
0.41355 0.662852 0.664027
0.550454 0.667353 0.674281
0.725536 0.661936 0.673655
0.86627 0.645853 0.656733
0.985306 0.639353 0.64979
0 0.809277 0.668345
0.0578775 0.807431 0.666133
0.156786 0.8038 0.662348
0.287633 0.799603 0.658106
0.411826 0.796628 0.652979
0.53872 0.800641 0.647868
0.670161 0.798688 0.647578
0.847227 0.773495 0.614221
0.988388 0.76173 0.613672
0 0.93196 0.663508
0.0556039 0.929198 0.659678
0.150515 0.924971 0.654215
0.281758 0.920241 0.6486
0.4065 0.917906 0.642069
0.528771 0.914443 0.634806
0.651881 0.910399 0.63241
0.790066 0.902754 0.639719
0.951476 0.893141 0.593469
0 1 0.654749
0.0517891 1 0.650004
0.140841 1 0.643641
0.271595 1 0.637217
0.39585 1 0.629557
0.516335 1 0.621714
0.638804 1 0.619104
0.77528 1 0.633005
0.91046 1 0.63888
0.018967 0.0273594 0.128527
0.04477 0.0404212 0.211582
0.0945754 0.052079 0.288426
0.157488 0.0607156 0.360235
0.236667 0.0642863 0.424735
0.352697 0.0578775 0.502876
0.521553 0.0427405 0.609079
0.724727 0.0262303 0.705318
0.900801 0.0118105 0.768734
0.0341039 0.107301 0.386892
0.0760357 0.119753 0.462043
0.142687 0.124865 0.567056
0.239078 0.122393 0.668757
0.367681 0.113954 0.740429
0.518639 0.103792 0.777234
0.674937 0.0969253 0.795575
0.817655 0.095201 0.798093
0.932235 0.0958267 0.799756
0 0.219074 0.698299
0.0361028 0.224125 0.763104
0.130617 0.223423 0.795254
0.253056 0.222812 0.804395
0.385 0.227039 0.804089
0.52636 0.23032 0.794965
0.673671 0.235554 0.794659
0.821164 0.245121 0.800931
0.946639 0.259449 0.812879
0 0.350362 0.796887
0.0248417 0.350927 0.797757
0.126833 0.350805 0.800931
0.258595 0.353704 0.805066
0.393683 0.362722 0.81149
0.545098 0.381933 0.819043
0.700908 0.398093 0.819287
0.846922 0.412543 0.826551
0.964202 0.418128 0.829618
0 0.492119 0.78587
0.0376745 0.502449 0.795544
0.148409 0.513146 0.805493
0.292165 0.522133 0.823285
0.427237 0.525093 0.832609
0.558389 0.527123 0.832425
0.700786 0.534234 0.825101
0.840497 0.540291 0.819852
0.964355 0.5449 0.819455
0 0.665919 0.812314
0.0574502 0.669017 0.815091
0.161624 0.66743 0.813535
0.295689 0.66511 0.811536
0.424369 0.661692 0.810956
0.556939 0.657877 0.819623
0.691173 0.657511 0.820203
0.832074 0.657526 0.807385
0.961959 0.661448 0.803647
0 0.80827 0.813672
0.0576486 0.806271 0.81149
0.157412 0.802625 0.807736
0.293278 0.798383 0.803479
0.421881 0.793088 0.798032
0.547585 0.787335 0.79263
0.677287 0.786068 0.794079
0.838178 0.777981 0.789441
0.969024 0.765545 0.776028
0 0.931151 0.808606
0.0551766 0.928145 0.804685
0.149844 0.923766 0.799237
0.286595 0.918822 0.793286
0.415579 0.913054 0.785779
0.541054 0.907195 0.77763
0.664286 0.906416 0.770642
0.790265 0.903578 0.768002
0.954177 0.887648 0.737743
0 1 0.799619
0.0512856 1 0.794903
0.139254 1 0.788251
0.276173 1 0.780957
0.405661 1 0.772168
0.531075 1 0.763561
0.653071 1 0.756802
0.773999 1 0.755596
0.908736 1 0.765652
0.0220035 0.0323033 0.178714
0.0501106 0.0438697 0.269169
0.100084 0.0554208 0.353979
0.164324 0.0623178 0.43679
0.248875 0.0638285 0.519265
0.375998 0.0533761 0.62536
0.549294 0.0374609 0.753079
0.747753 0.0212253 0.846296
0.911162 0.00822461 0.898375
0.0335546 0.111803 0.466209
0.0742657 0.122621 0.56405
0.143694 0.124453 0.690913
0.243397 0.119661 0.798962
0.374136 0.111208 0.869505
0.524285 0.101946 0.904784
0.675212 0.0965438 0.915602
0.815717 0.0957656 0.916793
0.931685 0.0968032 0.918288
0 0.221393 0.827237
0.032517 0.224659 0.885679
0.129137 0.223117 0.90901
0.252262 0.222873 0.914015
0.385183 0.22739 0.915267
0.526329 0.2327 0.916869
0.674739 0.239582 0.919982
0.823941 0.251804 0.925948
0.948425 0.266178 0.93489
0 0.350439 0.913283
0.0251621 0.351247 0.914305
0.127489 0.351614 0.91577
0.260471 0.355932 0.919738
0.39736 0.366506 0.926619
0.549508 0.386923 0.935866
0.703059 0.406104 0.943496
0.846845 0.419074 0.947936
0.962951 0.423255 0.949233
0 0.494636 0.918608
0.0402838 0.505821 0.92781
0.153628 0.51664 0.937392
0.295949 0.524636 0.943221
0.428199 0.526589 0.945739
0.558923 0.527947 0.945891
0.699825 0.537942 0.945495
0.838376 0.547631 0.945495
0.961975 0.552468 0.945266
0 0.668132 0.943221
0.0574197 0.668986 0.944198
0.162112 0.667399 0.943832
0.299519 0.664881 0.943053
0.43064 0.661204 0.942321
0.559014 0.657038 0.940139
0.688182 0.657191 0.938445
0.824994 0.665949 0.934951
0.95227 0.671351 0.932311
0 0.809171 0.943542
0.0573281 0.806821 0.942184
0.157382 0.802289 0.940276
0.297261 0.797604 0.936797
0.429068 0.791882 0.931716
0.557824 0.785611 0.927016
0.683772 0.779644 0.92665
0.811444 0.778012 0.924727
0.940383 0.780697 0.918334
0 0.930434 0.939696
0.0547646 0.927291 0.937041
0.148684 0.922774 0.932433
0.289952 0.917723 0.927138
0.422705 0.911727 0.920867
0.551781 0.905364 0.914168
0.675929 0.899718 0.90811
0.798703 0.896941 0.905425
0.943206 0.891356 0.900999
0 1 0.932311
0.050782 1 0.928115
0.138293 1 0.922316
0.279088 1 0.916365
0.412848 1 0.908705
0.542504 1 0.902052
0.668544 1 0.894881
0.788037 1 0.890944
0.90956 1 0.890669
0.0248569 0.0366217 0.234226
0.0548867 0.0478523 0.331655
0.105928 0.0580148 0.425437
0.172808 0.0635538 0.519478
0.263371 0.0615396 0.628565
0.398917 0.0482032 0.763516
0.576745 0.0320287 0.887907
0.767773 0.0165713 0.953384
0.91873 0.00544747 0.990906
0.0324559 0.116396 0.553887
0.0709392 0.124437 0.679423
0.14345 0.123003 0.816938
0.247745 0.116884 0.913741
0.3794 0.108248 0.968338
0.527916 0.100191 0.996307
0.67483 0.0968338 1
0.815198 0.0963607 1
0.931334 0.0978866 1
0 0.223194 0.935653
0.0294347 0.224979 0.979858
0.128267 0.22295 0.998642
0.252461 0.223072 1
0.385534 0.227863 1
0.526802 0.233433 1
0.6766 0.242039 1
0.827054 0.256474 1
0.950362 0.270954 1
0 0.350805 1
0.0255283 0.351766 1
0.128954 0.353185 1
0.263127 0.35877 1
0.401404 0.370672 1
0.553613 0.39115 1
0.705135 0.408667 1
0.846769 0.420111 1
0.962142 0.423743 1
0 0.498543 1
0.0429999 0.510002 1
0.157504 0.520485 1
0.298039 0.526741 1
0.428443 0.526787 1
0.558846 0.527947 1
0.699367 0.53814 1
0.837415 0.547997 1
0.960784 0.552834 1
0 0.669627 1
0.057557 0.669276 1
0.16199 0.667353 1
0.299535 0.664698 1
0.430228 0.660655 1
0.55874 0.656474 1
0.687236 0.656748 1
0.823514 0.667155 1
0.94995 0.673609 1
0 0.808774 1
0.0570993 0.806424 1
0.156603 0.80177 1
0.297093 0.796918 1
0.429541 0.791058 1
0.559335 0.784588 1
0.684016 0.778546 1
0.809049 0.778134 1
0.935561 0.785779 1
0 0.929625 1
0.0543374 0.926513 1
0.147402 0.921889 1
0.289876 0.916808 1
0.424323 0.910658 1
0.555566 0.904265 1
0.68278 0.898512 1
0.803555 0.894575 1
0.923354 0.89427 1
0 1 1
0.0502632 1 1
0.137346 1 1
0.278492 1 1
0.415381 1 1
0.548959 1 1
0.677409 1 1
0.799146 1 1
0.917647 1 1
