DaVinci_Crash_Course_LUT.cube
TITLE "Generated by Resolve"
LUT_3D_SIZE 33
0 0 0
0 0 0
0.00169375 0.00177005 0.00181582
0.00668345 0.00637827 0.00657664
0.0122683 0.010605 0.010956
0.0185855 0.0146029 0.0151064
0.0264744 0.0184329 0.0190738
0.0357977 0.0220645 0.0230106
0.0458534 0.0259251 0.0272831
0.0600595 0.0297093 0.031281
0.0757916 0.0330663 0.0347295
0.0931563 0.0361334 0.0378424
0.112169 0.0389258 0.0406348
0.131823 0.041413 0.0430762
0.15259 0.0436255 0.0452125
0.174258 0.045594 0.0478828
0.196551 0.0479438 0.0505074
0.219745 0.0502632 0.052903
0.244556 0.0522927 0.0550546
0.270375 0.0539864 0.0568551
0.297719 0.0554208 0.0583352
0.325704 0.0560616 0.0589609
0.355688 0.0567178 0.059678
0.387243 0.0570382 0.060029
0.41973 0.0569619 0.0599985
0.455253 0.0565042 0.059556
0.495247 0.0550698 0.0580911
0.540108 0.0526741 0.0556344
0.589654 0.0496376 0.0523232
0.642115 0.0461585 0.0484016
0.6981 0.0422065 0.0445563
0.754818 0.0376135 0.0401007
0.809323 0.0325475 0.0352026
0.00585946 0.00860609 0.00817884
0.0099794 0.0132601 0.0125582
0.0152438 0.0178378 0.0164645
0.021149 0.021973 0.0202487
0.0288701 0.026566 0.0243229
0.0374304 0.030808 0.0283665
0.0466468 0.0346838 0.0319829
0.0603952 0.0385595 0.0354467
0.0752728 0.0419318 0.0383612
0.0918441 0.0450294 0.0409857
0.110048 0.0485695 0.0433204
0.129 0.0522469 0.0454566
0.148928 0.0556344 0.0484169
0.170245 0.058732 0.0512245
0.192203 0.0611734 0.0533913
0.214801 0.0632792 0.0552224
0.23888 0.0652628 0.0568551
0.264164 0.0670329 0.0581369
0.290608 0.0684215 0.0590829
0.318547 0.0686046 0.0590677
0.34786 0.0690929 0.059144
0.379278 0.0693217 0.0589456
0.412787 0.0689403 0.0581216
0.451118 0.0676127 0.0562295
0.49395 0.0654002 0.0534218
0.541268 0.0624704 0.0497902
0.591577 0.0590372 0.0458228
0.643275 0.0553597 0.0415656
0.698177 0.0514382 0.0368353
0.752346 0.047364 0.0318761
0.804303 0.0429236 0.026627
0.853178 0.0382391 0.0211948
0.893599 0.0332647 0.0156252
0.0155489 0.0263828 0.0225376
0.0204623 0.0315557 0.0272068
0.026627 0.036408 0.0313115
0.0343481 0.0408637 0.0334173
0.043061 0.04477 0.0358282
0.0547036 0.0492714 0.038407
0.0693675 0.0543526 0.0408331
0.0850538 0.058793 0.0429389
0.102434 0.0629129 0.0450752
0.120882 0.066743 0.0480812
0.140246 0.0704509 0.0508431
0.16083 0.0736248 0.0532235
0.183017 0.0762188 0.0552071
0.205264 0.0780957 0.0564889
0.228565 0.0797894 0.0574197
0.253452 0.0816205 0.0582132
0.279286 0.0830701 0.0586099
0.306416 0.0834058 0.0581826
0.335897 0.0834974 0.0575418
0.368627 0.0832685 0.05626
0.405295 0.0822003 0.0539559
0.445457 0.0802014 0.0507515
0.489158 0.0773022 0.0469978
0.536416 0.0738537 0.0429694
0.585946 0.0704051 0.0383917
0.636378 0.0667277 0.0334325
0.688991 0.0630045 0.0282139
0.741283 0.0592813 0.0227359
0.790066 0.055436 0.0172122
0.838712 0.0515755 0.01178
0.878279 0.0474708 0.00634775
0.91519 0.0433661 0.00105287
0.951629 0.0393835 0
0.0234226 0.0467079 0.0365301
0.029633 0.0530556 0.0397803
0.0362554 0.0593576 0.0426947
0.0433051 0.0654459 0.0450446
0.0551003 0.0709392 0.045182
0.0707866 0.075639 0.0454871
0.0876478 0.0796521 0.0471962
0.105684 0.0836805 0.0496529
0.124895 0.0874342 0.0517586
0.145541 0.0909743 0.0535592
0.167254 0.0938582 0.0550851
0.189578 0.0960708 0.0561227
0.212467 0.0972 0.056611
0.236942 0.098436 0.0568551
0.262745 0.0996719 0.0567483
0.289708 0.100618 0.0560311
0.320516 0.0999771 0.0538796
0.355001 0.0987716 0.0510567
0.393347 0.0976577 0.0475776
0.4336 0.0957351 0.0438239
0.476692 0.0932326 0.0395819
0.521965 0.090013 0.0347906
0.570626 0.0863966 0.0296025
0.619226 0.0823377 0.0242466
0.668742 0.0780041 0.0187839
0.719036 0.0737926 0.0132143
0.76611 0.0704662 0.00753796
0.811872 0.067216 0.00213626
0.854994 0.0639963 0
0.889784 0.0606394 0
0.923644 0.0574044 0
0.956817 0.0543679 0
0.98912 0.051545 0
0.0292821 0.0756237 0.0466163
0.0356298 0.0817578 0.0503243
0.0426184 0.0878309 0.0539712
0.0537881 0.0936141 0.0575875
0.0667887 0.0992752 0.0603494
0.0818189 0.104417 0.0589609
0.100221 0.108019 0.0558938
0.120516 0.110918 0.054551
0.142672 0.11397 0.0544594
0.165316 0.116762 0.0547036
0.188815 0.118715 0.0545968
0.213291 0.119188 0.0539712
0.239811 0.119478 0.0529183
0.268544 0.119463 0.0507362
0.299611 0.119142 0.0475166
0.3346 0.117937 0.0441138
0.372534 0.116182 0.0401007
0.412421 0.114458 0.0355535
0.454231 0.112276 0.0305638
0.498177 0.109606 0.0252689
0.543282 0.106477 0.019791
0.590814 0.103136 0.0142061
0.637644 0.0995651 0.00869764
0.685008 0.0959029 0.00331121
0.732036 0.0922408 0
0.775326 0.0885176 0
0.818463 0.0850996 0
0.857893 0.0816968 0
0.889464 0.0782483 0
0.920226 0.0750134 0
0.950301 0.0727855 0
0.979461 0.0708629 0
1 0.0693675 0
0.0328069 0.106294 0.0584878
0.0398566 0.112337 0.061326
0.0495155 0.118303 0.0640879
0.0622873 0.124102 0.0667124
0.0757305 0.129625 0.0689097
0.090837 0.134081 0.0695354
0.108095 0.137926 0.0658885
0.129381 0.141054 0.059678
0.153658 0.14345 0.0547036
0.179538 0.145083 0.0506142
0.207004 0.14519 0.0471199
0.236759 0.143832 0.0441444
0.268574 0.142321 0.0406958
0.302815 0.141436 0.0363317
0.339757 0.139681 0.031281
0.379553 0.137179 0.0258946
0.420157 0.135225 0.0203403
0.462089 0.133043 0.014725
0.505516 0.130541 0.00910964
0.550118 0.127779 0.00355535
0.595224 0.124743 0
0.639902 0.121569 0
0.684749 0.118425 0
0.729213 0.115328 0
0.770443 0.112337 0
0.810468 0.109697 0
0.84831 0.107134 0
0.879408 0.104601 0
0.907591 0.102342 0
0.93489 0.10042 0
0.961135 0.0989242 0
0.986633 0.0979324 0
1 0.0967727 0
0.0343175 0.138842 0.0668803
0.0421302 0.144991 0.0686961
0.0535592 0.150774 0.0702525
0.0664988 0.156252 0.071458
0.0804761 0.161044 0.0721141
0.0962692 0.16492 0.0720836
0.113054 0.168811 0.0697795
0.133089 0.172335 0.0625467
0.15761 0.174334 0.0513466
0.186664 0.174624 0.0409705
0.219471 0.173175 0.0337835
0.255146 0.170352 0.0280766
0.291554 0.167956 0.0224918
0.329274 0.165591 0.0166171
0.369436 0.162921 0.0106966
0.411521 0.160708 0.0047303
0.453651 0.158648 0
0.496437 0.155474 0
0.540169 0.153063 0
0.584161 0.150866 0
0.627573 0.14815 0
0.670085 0.145373 0
0.712535 0.142718 0
0.752667 0.140276 0
0.790204 0.138308 0
0.826368 0.136416 0
0.860349 0.134722 0
0.88661 0.133272 0
0.912001 0.131991 0
0.937591 0.130983 0
0.963027 0.129885 0
0.988434 0.12874 0
1 0.127626 0
0.0333562 0.172976 0.0706035
0.0416876 0.178576 0.0707866
0.052491 0.184253 0.0705272
0.0640726 0.189792 0.0694133
0.0766766 0.194766 0.0673533
0.0920424 0.198978 0.0644388
0.109407 0.202808 0.0609598
0.130007 0.205905 0.0552529
0.153979 0.208042 0.0452735
0.183352 0.208103 0.033341
0.218387 0.205127 0.0209506
0.258869 0.201694 0.0107271
0.299931 0.197604 0.00303655
0.3411 0.1935 0
0.384207 0.190066 0
0.427787 0.187381 0
0.47129 0.185183 0
0.514305 0.182788 0
0.557626 0.180423 0
0.600458 0.178408 0
0.64213 0.176013 0
0.682826 0.173785 0
0.722927 0.171984 0
0.759915 0.170397 0
0.794217 0.169024 0
0.82797 0.167788 0
0.860609 0.166674 0
0.887526 0.165438 0
0.913268 0.164446 0
0.938888 0.163317 0
0.964508 0.162173 0
0.990066 0.161089 0
1 0.160021 0
0.026627 0.2094 0.0675975
0.0339361 0.215702 0.0651255
0.0420844 0.221729 0.0620127
0.0525521 0.227405 0.058732
0.0644846 0.232929 0.055024
0.0800793 0.237156 0.0510414
0.0985428 0.240482 0.0469215
0.120806 0.243 0.0428473
0.145647 0.244694 0.0370642
0.174578 0.24477 0.0275425
0.208194 0.241962 0.0145571
0.248203 0.236606 0.000579843
0.292943 0.231327 0
0.337774 0.22536 0
0.383078 0.221103 0
0.428794 0.217868 0
0.475257 0.215808 0
0.518456 0.213428 0
0.561013 0.211231 0
0.602716 0.20914 0
0.642496 0.207172 0
0.681178 0.205539 0
0.719997 0.204089 0
0.757046 0.202609 0
0.791852 0.201221 0
0.826215 0.199985 0
0.859724 0.198871 0
0.888289 0.197955 0
0.914183 0.196796 0
0.940017 0.195697 0
0.965835 0.194675 0
0.991745 0.193851 0
1 0.193515 0
0.0099031 0.252049 0.0572518
0.0180972 0.258442 0.0534371
0.0277562 0.263996 0.0494392
0.0388952 0.269261 0.0453498
0.0520638 0.27335 0.0415045
0.0670024 0.276753 0.0377661
0.0879072 0.27895 0.0340887
0.111238 0.280735 0.030518
0.136934 0.282002 0.0269932
0.165331 0.282231 0.0213169
0.197314 0.279301 0.0121462
0.233677 0.273747 0
0.275898 0.267201 0
0.322759 0.260777 0
0.370275 0.255177 0
0.417014 0.250797 0
0.465385 0.248768 0
0.511177 0.246403 0
0.553262 0.244221 0
0.596155 0.24239 0
0.636835 0.240757 0
0.675639 0.239017 0
0.714641 0.237415 0
0.752819 0.235935 0
0.788373 0.234546 0
0.823407 0.233433 0
0.857969 0.232456 0
0.888273 0.231373 0
0.914809 0.230472 0
0.941497 0.229953 0
0.968277 0.229801 0
0.995132 0.229862 0
1 0.229984 0
0 0.296727 0.0438849
0 0.302419 0.0401312
0.0116579 0.306859 0.036408
0.0254673 0.310475 0.0327611
0.0406806 0.313405 0.0292668
0.0573129 0.31574 0.0259556
0.0778821 0.317174 0.0228733
0.10312 0.318212 0.0201572
0.130373 0.318868 0.0177005
0.158206 0.318441 0.0153201
0.188617 0.316274 0.0106661
0.222446 0.310689 0.00292973
0.260578 0.303883 0
0.302907 0.296986 0
0.349722 0.291051 0
0.397681 0.285023 0
0.446189 0.281849 0
0.495766 0.280018 0
0.541634 0.278096 0
0.586206 0.276478 0
0.62948 0.274769 0
0.669856 0.273121 0
0.709239 0.271595 0
0.74818 0.270222 0
0.785122 0.2692 0
0.820539 0.26862 0
0.856199 0.268238 0
0.889036 0.267994 0
0.916487 0.26772 0
0.943999 0.26775 0
0.971984 0.268589 0
0.999893 0.269444 0
1 0.270558 0
0 0.340352 0.0314488
0 0.344305 0.0280308
0 0.347524 0.0247959
0.0138552 0.349905 0.0218357
0.0315404 0.351629 0.0191653
0.0502022 0.352865 0.0168307
0.0706951 0.353887 0.0149386
0.0957504 0.354223 0.0133822
0.123903 0.354116 0.0122225
0.153826 0.353368 0.0115206
0.183581 0.351156 0.0108186
0.214603 0.34583 0.0077821
0.25008 0.339956 0.00180056
0.287388 0.333196 0
0.329137 0.327001 0
0.376455 0.321035 0
0.424414 0.316564 0
0.474815 0.314824 0
0.525139 0.3131 0
0.572015 0.311376 0
0.617807 0.309667 0
0.661295 0.30808 0
0.70312 0.307149 0
0.744549 0.307073 0
0.783322 0.306798 0
0.819699 0.30663 0
0.856184 0.306905 0
0.891157 0.307637 0
0.919814 0.308659 0
0.948608 0.310002 0
0.977157 0.311116 0
1 0.312123 0
1 0.313191 0
0 0.3823 0.0208286
0 0.384939 0.0182956
0 0.386969 0.016083
0.00585946 0.388357 0.0142367
0.025803 0.389181 0.0128939
0.0464179 0.38941 0.0119478
0.0678111 0.389273 0.011429
0.0930953 0.38883 0.0113527
0.120851 0.388357 0.0114595
0.150805 0.387808 0.0115969
0.180819 0.385657 0.0119173
0.21088 0.38114 0.0114748
0.243275 0.37525 0.00840772
0.278035 0.369406 0.00247196
0.314626 0.363424 0
0.356451 0.356909 0
0.403693 0.352544 0
0.450355 0.34992 0
0.502571 0.348699 0
0.552361 0.347814 0
0.601556 0.347158 0
0.647715 0.346258 0
0.694469 0.346197 0
0.738689 0.346868 0
0.780301 0.347662 0
0.820554 0.348775 0
0.859159 0.350042 0
0.894987 0.351415 0
0.924788 0.352804 0
0.953521 0.353857 0
0.982254 0.354971 0
1 0.355962 0
1 0.35671 0
0 0.421622 0.0137026
0 0.422843 0.0124361
0 0.423636 0.0115969
0.0027924 0.424201 0.0113222
0.0244907 0.423987 0.0114443
0.0461891 0.423636 0.0115663
0.0681163 0.423377 0.0117189
0.0926833 0.423133 0.0118868
0.120378 0.422934 0.0120699
0.149371 0.422843 0.0123903
0.178332 0.421256 0.012665
0.208331 0.41709 0.0129397
0.239521 0.410925 0.0123598
0.271351 0.406043 0.00932326
0.306157 0.400916 0.00369268
0.343664 0.39559 0
0.385916 0.390494 0
0.431525 0.389136 0
0.480232 0.388754 0
0.531075 0.388327 0
0.582788 0.388632 0
0.63241 0.389258 0
0.681956 0.390112 0
0.731426 0.39118 0
0.775891 0.392309 0
0.818509 0.393561 0
0.860609 0.395377 0
0.898512 0.396857 0
0.929702 0.397879 0
0.958312 0.39855 0
0.986435 0.398764 0
1 0.398489 0
1 0.398337 0
0 0.456504 0.0112459
0 0.456626 0.0113527
0 0.457099 0.0116579
0.00331121 0.457282 0.0118257
0.0250706 0.457069 0.0120089
0.0468299 0.456886 0.012192
0.0687877 0.456687 0.0123903
0.0926833 0.456748 0.012726
0.120638 0.456794 0.0131075
0.149279 0.456794 0.0134127
0.177554 0.456382 0.0137484
0.207584 0.453452 0.0142367
0.238972 0.448447 0.0149844
0.270893 0.443824 0.0149691
0.303868 0.439658 0.0126345
0.340185 0.434943 0.00779736
0.378744 0.430472 0.000717174
0.421042 0.428916 0
0.468162 0.430228 0
0.517189 0.4318 0
0.568597 0.432853 0
0.620279 0.433677 0
0.67068 0.434989 0
0.721965 0.436408 0
0.770993 0.437659 0
0.815854 0.438666 0
0.858595 0.439826 0
0.898939 0.440253 0
0.931823 0.440024 0
0.960006 0.439521 0
0.987869 0.438865 0
1 0.438025 0
1 0.436439 0
0 0.489754 0.0117952
0 0.490242 0.0121157
0 0.490517 0.012314
0.00402838 0.49073 0.0125277
0.0258793 0.490639 0.0127871
0.0477455 0.490593 0.0130922
0.0697642 0.490654 0.0134585
0.0931868 0.490929 0.013962
0.121431 0.491386 0.0145571
0.1505 0.49221 0.0153811
0.179828 0.493034 0.0163882
0.210468 0.492271 0.0174258
0.242542 0.489906 0.0187381
0.275029 0.486412 0.0202792
0.308583 0.482261 0.020737
0.344625 0.477668 0.0191958
0.382025 0.473564 0.0153506
0.422568 0.472801 0.00917067
0.466789 0.475349 0.00132753
0.51313 0.477424 0
0.562463 0.478935 0
0.614328 0.480034 0
0.664637 0.480735 0
0.71548 0.481331 0
0.76527 0.481483 0
0.810834 0.481178 0
0.854109 0.480888 0
0.895735 0.480415 0
0.931105 0.479255 0
0.958923 0.477729 0
0.986252 0.475792 0
1 0.473838 0
1 0.471824 0
0 0.523995 0.012665
0 0.524392 0.0129397
0 0.524819 0.0132448
0.00508125 0.525246 0.0135653
0.0271153 0.525567 0.0140078
0.0495766 0.526467 0.0148928
0.0720531 0.527413 0.0158083
0.0962234 0.528511 0.0168307
0.124605 0.529671 0.0179141
0.154101 0.531258 0.0191806
0.184466 0.532967 0.0208286
0.216419 0.534127 0.0228885
0.249439 0.533898 0.0248875
0.282658 0.532235 0.0269017
0.316854 0.528069 0.0288243
0.35227 0.52256 0.0293278
0.388922 0.517449 0.0278935
0.428214 0.517021 0.0242618
0.469123 0.519326 0.0182498
0.512184 0.521035 0.010132
0.557656 0.522301 0.000259403
0.606882 0.522972 0
0.655711 0.52343 0
0.705455 0.52314 0
0.755413 0.522545 0
0.801556 0.521431 0
0.844663 0.519478 0
0.886564 0.517525 0
0.926131 0.51603 0
0.955276 0.51397 0
0.982834 0.511803 0
1 0.50959 0
1 0.507378 0
0 0.557336 0.0137484
0 0.558099 0.0142824
0 0.559228 0.0150454
0.00756847 0.560525 0.016022
0.0303807 0.561975 0.0172732
0.0531014 0.56321 0.0184024
0.076051 0.564843 0.019791
0.101442 0.566964 0.0215
0.130465 0.569482 0.0234379
0.16112 0.572427 0.0254978
0.192172 0.575113 0.0277256
0.224338 0.576822 0.0297398
0.25742 0.576867 0.0317693
0.290669 0.576913 0.0337987
0.325063 0.573373 0.0357977
0.360357 0.567407 0.0376135
0.396475 0.561105 0.0376593
0.433112 0.558984 0.0352789
0.471107 0.559564 0.0306859
0.511208 0.560555 0.0239567
0.552789 0.561471 0.0152895
0.598718 0.56199 0.00503548
0.64506 0.561456 0
0.691859 0.560479 0
0.740414 0.559091 0
0.788113 0.557946 0
0.832395 0.556085 0
0.874937 0.553719 0
0.916457 0.551659 0
0.950408 0.549554 0
0.978256 0.547295 0
1 0.544991 0
1 0.542824 0
0 0.593759 0.0164492
0 0.595315 0.0175021
0 0.597101 0.0187076
0.0119936 0.599466 0.0204318
0.0354009 0.601724 0.0222629
0.0589609 0.604257 0.0242466
0.0825513 0.606882 0.0262608
0.108659 0.60943 0.028275
0.138338 0.612802 0.0305638
0.16936 0.615473 0.032578
0.199908 0.618067 0.0346227
0.232364 0.620401 0.0366064
0.265248 0.621103 0.0383917
0.298009 0.619989 0.0399023
0.331533 0.616129 0.0412909
0.365713 0.608988 0.0423743
0.400763 0.601923 0.0430915
0.43595 0.598581 0.0420233
0.472145 0.598016 0.0388037
0.50956 0.597681 0.0334325
0.547875 0.597894 0.0260929
0.589578 0.597757 0.016907
0.633707 0.597208 0.00614939
0.678614 0.596521 0
0.725322 0.595392 0
0.773388 0.59411 0
0.819226 0.592569 0
0.862242 0.590204 0
0.904616 0.587762 0
0.943023 0.58558 0
0.972717 0.583093 0
1 0.580758 0
1 0.578408 0
0 0.632746 0.0208896
0 0.635904 0.0230106
0 0.638895 0.0250553
0.0186465 0.641627 0.0270695
0.0422522 0.64419 0.029099
0.0658579 0.646815 0.0311131
0.0895857 0.649363 0.0331426
0.116243 0.652354 0.0354314
0.146273 0.654948 0.0373693
0.176715 0.657145 0.0390478
0.206699 0.659052 0.0404059
0.238041 0.660624 0.0415503
0.269947 0.661051 0.0426184
0.302251 0.659815 0.0437781
0.334783 0.655009 0.0444495
0.368063 0.647211 0.0448157
0.401938 0.639429 0.0449836
0.435935 0.634714 0.0446784
0.470954 0.633295 0.0428168
0.507439 0.633005 0.0392767
0.544076 0.632776 0.0337072
0.583169 0.632547 0.026276
0.624659 0.632197 0.0172122
0.667308 0.631601 0.00656138
0.712016 0.631037 0
0.758907 0.629801 0
0.804761 0.628305 0
0.848508 0.626566 0
0.891737 0.624552 0
0.932891 0.622599 0
0.966583 0.620417 0
0.99472 0.617792 0
1 0.615244 0
0 0.674708 0.0278172
0 0.677684 0.0299077
0.00195315 0.680583 0.0319371
0.0255589 0.683116 0.0339666
0.0491646 0.685573 0.0359808
0.0726024 0.6878 0.0378424
0.096437 0.69012 0.0396429
0.122438 0.691966 0.0409094
0.151598 0.693538 0.0420081
0.180957 0.694728 0.0430457
0.210544 0.69575 0.0439155
0.241352 0.696468 0.0446632
0.27219 0.696269 0.0449531
0.30309 0.694759 0.0450904
0.334752 0.690044 0.0451972
0.36762 0.682414 0.0452888
0.401099 0.674479 0.0453346
0.435126 0.669291 0.0455177
0.469764 0.667353 0.0449531
0.505379 0.66656 0.0428168
0.541329 0.665995 0.0390021
0.578912 0.665431 0.0334173
0.61828 0.665125 0.0260624
0.658656 0.664988 0.0172122
0.700755 0.664424 0.00679026
0.745434 0.663752 0
0.790768 0.662791 0
0.834745 0.661219 0
0.877668 0.659373 0
0.920195 0.657588 0
0.959091 0.655436 0
0.987503 0.652995 0
1 0.650553 0
0 0.716411 0.0347753
0 0.719295 0.036759
0.00856031 0.721721 0.038529
0.0316014 0.723476 0.0399786
0.0545052 0.725032 0.0413062
0.0772259 0.726253 0.0424506
0.100191 0.72726 0.0434577
0.126085 0.72813 0.0442206
0.154482 0.728481 0.0446784
0.182696 0.728801 0.0448768
0.211505 0.729091 0.0451667
0.241443 0.728771 0.0452888
0.272007 0.728298 0.0453651
0.302678 0.72752 0.0454108
0.334157 0.724041 0.0454108
0.366751 0.717098 0.0454108
0.400076 0.709209 0.0455634
0.433646 0.703288 0.0455177
0.468345 0.701137 0.0454566
0.503609 0.700328 0.0446479
0.538903 0.699351 0.0423133
0.575296 0.698192 0.038407
0.613519 0.698009 0.0329747
0.652018 0.697658 0.0256657
0.691875 0.69723 0.0167239
0.734035 0.696864 0.00654612
0.778088 0.696483 0
0.821927 0.695644 0
0.863996 0.693599 0
0.906188 0.691569 0
0.947967 0.68954 0
0.979644 0.68719 0
1 0.68481 0
0 0.756588 0.0404974
0 0.758221 0.0416114
0.0127413 0.759503 0.0426795
0.0353704 0.760555 0.0437324
0.0576944 0.761151 0.0444648
0.0796063 0.761196 0.0448157
0.101564 0.761013 0.0449683
0.126833 0.76112 0.0451057
0.154742 0.761059 0.0451972
0.182986 0.761105 0.0454414
0.211429 0.760784 0.0454566
0.241108 0.760281 0.0454566
0.271534 0.759747 0.0454566
0.302052 0.758968 0.0454414
0.333532 0.756512 0.0455177
0.366018 0.751125 0.0454871
0.398733 0.743694 0.0454108
0.432059 0.737575 0.0453193
0.466773 0.73518 0.0452277
0.501869 0.73402 0.0450752
0.537163 0.732952 0.0442054
0.572732 0.731517 0.0417182
0.609781 0.730922 0.037705
0.647089 0.730419 0.032105
0.685084 0.729992 0.0248569
0.725078 0.729534 0.016022
0.767468 0.729229 0.0061799
0.809888 0.728405 0
0.851347 0.727153 0
0.892638 0.725612 0
0.934127 0.723796 0
0.97052 0.721675 0
0.999847 0.719463 0
0 0.793042 0.043946
0 0.793881 0.0445411
0.0150149 0.794156 0.0449378
0.0367285 0.793912 0.0450599
0.0584115 0.793698 0.045182
0.0800793 0.793423 0.0452735
0.101778 0.793057 0.0453193
0.127001 0.793027 0.0454261
0.154849 0.792874 0.0455177
0.182757 0.792752 0.0455024
0.211078 0.792599 0.0454719
0.24062 0.792096 0.0454261
0.270893 0.791485 0.0453498
0.301442 0.790524 0.0453803
0.332677 0.787991 0.0453498
0.36495 0.783688 0.045243
0.397528 0.777661 0.0451057
0.430549 0.771908 0.0449531
0.464927 0.769238 0.0448005
0.500343 0.767758 0.0447852
0.535302 0.766445 0.0445716
0.570413 0.764981 0.0433509
0.606744 0.763897 0.0406806
0.64329 0.762966 0.0366064
0.679973 0.762432 0.0309758
0.718517 0.762188 0.0239567
0.758572 0.761746 0.015259
0.799741 0.761105 0.00540169
0.839994 0.76025 0
0.880201 0.758907 0
0.921279 0.75761 0
0.960082 0.755673 0
0.991363 0.753353 0
0 0.824643 0.0450141
0 0.824948 0.0452735
0.0154269 0.824796 0.0453346
0.0370489 0.82443 0.0453803
0.0586252 0.824033 0.0453803
0.0802014 0.823621 0.0453803
0.101839 0.823285 0.0454414
0.126955 0.82324 0.0455024
0.154528 0.82295 0.0454414
0.182361 0.82266 0.0453651
0.210559 0.822324 0.0452888
0.239887 0.821759 0.0451972
0.270329 0.821302 0.045243
0.300649 0.820584 0.0451057
0.331655 0.818494 0.0449531
0.363745 0.814527 0.0448005
0.396262 0.809552 0.0446479
0.429129 0.805035 0.0445563
0.463279 0.802518 0.044419
0.498466 0.800641 0.0442206
0.533364 0.799374 0.044007
0.5682 0.798093 0.0436561
0.604196 0.796689 0.0422522
0.64033 0.795438 0.0395819
0.675975 0.794812 0.035462
0.7131 0.794339 0.0298314
0.751461 0.793912 0.0227054
0.791485 0.793423 0.0141146
0.830106 0.792767 0.00440986
0.869368 0.792142 0
0.909194 0.790921 0
0.948959 0.789334 0
0.983047 0.787366 0
0 0.854429 0.0454261
0 0.854429 0.0454261
0.0155184 0.8542 0.0454261
0.0370794 0.853758 0.0453956
0.0586404 0.853346 0.0453803
0.080293 0.85304 0.0454566
0.101793 0.852522 0.0453803
0.126619 0.852003 0.0452888
0.154055 0.851453 0.0451972
0.181811 0.851118 0.0450752
0.209918 0.850858 0.0449836
0.239124 0.850446 0.0449531
0.26923 0.849836 0.0448005
0.299489 0.849149 0.0446326
0.330343 0.847471 0.0444495
0.362402 0.844144 0.0442359
0.394873 0.839887 0.0441138
0.427634 0.835981 0.0439765
0.461326 0.833844 0.0437476
0.496422 0.832105 0.0435187
0.531289 0.830594 0.0432593
0.565911 0.829374 0.0429999
0.601755 0.828092 0.0426337
0.637568 0.826535 0.0411231
0.67219 0.825589 0.0382239
0.708583 0.825025 0.0339971
0.745769 0.824521 0.0283513
0.784772 0.824079 0.0212863
0.822583 0.82385 0.0129702
0.860059 0.82327 0.00340276
0.898497 0.822354 0
0.93727 0.821118 0
0.974182 0.819577 0
0 0.88307 0.0454261
0 0.883009 0.0453803
0.0154116 0.882673 0.045304
0.0369268 0.882185 0.0452277
0.0585794 0.881865 0.045304
0.0800488 0.8813 0.0451972
0.101488 0.88072 0.0450599
0.126085 0.88014 0.0449226
0.153338 0.87953 0.04477
0.181064 0.878965 0.0446632
0.209201 0.878462 0.0446174
0.237964 0.877729 0.044419
0.267842 0.876936 0.0442054
0.297856 0.876127 0.044007
0.328481 0.875181 0.0437934
0.361059 0.873487 0.0437171
0.393271 0.869734 0.043473
0.425803 0.86566 0.0432136
0.45922 0.86334 0.0429541
0.494163 0.862013 0.0426947
0.529152 0.860655 0.0424811
0.563714 0.859525 0.0422827
0.59913 0.858167 0.0419928
0.634836 0.856519 0.0413825
0.669169 0.855177 0.0396429
0.704677 0.854505 0.0366674
0.741146 0.854063 0.0324865
0.779293 0.853727 0.0269169
0.816159 0.853315 0.0198978
0.852216 0.852857 0.0115206
0.888731 0.852216 0.00210575
0.927169 0.851255 0
0.964431 0.850309 0
0 0.91078 0.0452277
0 0.910628 0.0451362
0.0153201 0.91046 0.0451972
0.036759 0.909895 0.0450599
0.0581979 0.909316 0.0449073
0.0796216 0.908766 0.04477
0.10103 0.908156 0.0446021
0.125368 0.9075 0.044419
0.152621 0.907057 0.0443885
