DaVinci_Crash_Course_LUT.cube
TITLE "Generated by Resolve"
LUT_3D_SIZE 5
0 0 0
0.0458534 0.0259251 0.0272831
0.196551 0.0479438 0.0505074
0.41973 0.0569619 0.0599985
0.809323 0.0325475 0.0352026
0.026627 0.2094 0.0675975
0.145647 0.244694 0.0370642
0.475257 0.215808 0
0.791852 0.201221 0
1 0.193515 0
0 0.523995 0.012665
0.124605 0.529671 0.0179141
0.388922 0.517449 0.0278935
0.755413 0.522545 0
1 0.507378 0
0 0.824643 0.0450141
0.154528 0.82295 0.0454414
0.396262 0.809552 0.0446479
0.675975 0.794812 0.035462
0.983047 0.787366 0
0 1 0.042298
0.145754 1 0.0401617
0.379767 1 0.0375525
0.651591 1 0.0349279
0.924788 1 0.022034
0.00384527 0.00514229 0.00874342
0.0622568 0.0364233 0.083238
0.207843 0.0588388 0.15111
0.434058 0.0617838 0.190555
0.831434 0.0299992 0.23035
0.0134127 0.21442 0.217945
0.147631 0.242985 0.252537
0.454627 0.217441 0.227649
0.751888 0.206455 0.215564
0.98555 0.204288 0.213138
0 0.521645 0.216358
0.130724 0.534035 0.227008
0.397513 0.543816 0.252033
0.766323 0.515312 0.19263
1 0.500908 0.183276
0 0.824308 0.253895
0.155154 0.821851 0.251392
0.393545 0.815167 0.25565
0.671595 0.790555 0.252644
0.991165 0.779049 0.132891
0 1 0.246036
0.143938 1 0.239155
0.375906 1 0.23946
0.646052 1 0.240757
0.919707 1 0.224903
0.0120851 0.0166934 0.0473793
0.0807202 0.0439612 0.174853
0.223072 0.0633249 0.272847
0.464408 0.0534981 0.363607
0.858396 0.0241093 0.473152
0 0.212146 0.436591
0.135836 0.224155 0.525994
0.38793 0.22501 0.53048
0.680812 0.226993 0.505257
0.944289 0.237675 0.517708
0 0.488807 0.484306
0.138293 0.505943 0.501625
0.423301 0.539849 0.548165
0.753445 0.517281 0.527855
0.99649 0.507393 0.517708
0 0.810803 0.522011
0.156924 0.806043 0.517052
0.403998 0.811154 0.508904
0.666575 0.793805 0.512261
0.994949 0.766812 0.445869
0 1 0.510414
0.142641 1 0.499977
0.38407 1 0.487129
0.640223 1 0.495933
0.913283 1 0.506355
0.018967 0.0273594 0.128527
0.0945754 0.052079 0.288426
0.236667 0.0642863 0.424735
0.521553 0.0427405 0.609079
0.900801 0.0118105 0.768734
0 0.219074 0.698299
0.130617 0.223423 0.795254
0.385 0.227039 0.804089
0.673671 0.235554 0.794659
0.946639 0.259449 0.812879
0 0.492119 0.78587
0.148409 0.513146 0.805493
0.427237 0.525093 0.832609
0.700786 0.534234 0.825101
0.964355 0.5449 0.819455
0 0.80827 0.813672
0.157412 0.802625 0.807736
0.421881 0.793088 0.798032
0.677287 0.786068 0.794079
0.969024 0.765545 0.776028
0 1 0.799619
0.139254 1 0.788251
0.405661 1 0.772168
0.653071 1 0.756802
0.908736 1 0.765652
0.0248569 0.0366217 0.234226
0.105928 0.0580148 0.425437
0.263371 0.0615396 0.628565
0.576745 0.0320287 0.887907
0.91873 0.00544747 0.990906
0 0.223194 0.935653
0.128267 0.22295 0.998642
0.385534 0.227863 1
0.6766 0.242039 1
0.950362 0.270954 1
0 0.498543 1
0.157504 0.520485 1
0.428443 0.526787 1
0.699367 0.53814 1
0.960784 0.552834 1
0 0.808774 1
0.156603 0.80177 1
0.429541 0.791058 1
0.684016 0.778546 1
0.935561 0.785779 1
0 1 1
0.137346 1 1
0.415381 1 1
0.677409 1 1
0.917647 1 1
